X: 37530
T: Sloe, The
R: polka
M: 2/4
K: Dmajor
A|:d>A de|f>e dc|B>A B/c/d/B/|~AF ED|
d>A de|f>e dc|B>A Bc|1 d2d/A/B/c/:|2 d2 dA/A/||
|:~BA FA/A/|~BA Fd/d/|dc/c/ cB/B/|BA Ad/d/|
dc/c/ ce/e/|ed df/f/|~fe Bc|1 d2 dA/A/:|2 d2 dA||

